tools/download-figma-icons/icons/outlined-large/power-gas.svg

<svg width="64" height="65" viewBox="0 0 64 65" fill="none" xmlns="http://www.w3.org/2000/svg">
<path fill-rule="evenodd" clip-rule="evenodd" d="M19.4716 37.1351L16.6166 40.5291C16.6014 40.548 16.5922 40.5716 16.583 40.5953C16.5748 40.6166 16.5664 40.6381 16.5536 40.6561V25.9021C16.5536 25.0741 15.8816 24.4021 15.0536 24.4021H3.23564L18.9766 3.01409V17.7691C18.9766 18.5971 19.6486 19.2691 20.4766 19.2691H34.0326C34.8606 19.2691 35.5326 18.5971 35.5326 17.7691C35.5326 16.9411 34.8606 16.2691 34.0326 16.2691H21.9766V3.01409C21.9766 1.68509 21.1386 0.53009 19.8926 0.13909C18.6196 -0.25491 17.3056 0.20709 16.5586 1.28509L0.533636 23.0141C-0.0813641 23.9011 -0.170364 24.9621 0.295636 25.8531C0.796636 26.8091 1.85864 27.4031 3.06664 27.4031H13.5546V40.6571C13.5546 41.9861 14.3926 43.1411 15.6396 43.5321C15.9406 43.6261 16.2436 43.6721 16.5426 43.6721C17.4776 43.6721 18.3616 43.2251 18.9516 42.4161L21.7676 39.0681C22.3006 38.4331 22.2186 37.4871 21.5846 36.9541C20.9506 36.4221 20.0056 36.5041 19.4706 37.1371L19.4716 37.1351ZM58.4865 37.4239L58.486 37.4232C55.4061 33.3094 51.9145 28.6455 50.7015 21.5809C50.6135 21.0689 50.2665 20.6389 49.7855 20.4439C49.3035 20.2499 48.7545 20.3179 48.3365 20.6249C46.2885 22.1259 44.4885 23.6009 42.8325 25.1349C42.2255 25.6979 42.1885 26.6469 42.7515 27.2549C43.3145 27.8629 44.2635 27.8989 44.8715 27.3359C45.9225 26.3619 47.0385 25.4109 48.2465 24.4589C49.8895 30.9469 53.2925 35.4929 56.0855 39.2219L56.0859 39.2224C58.7957 42.8411 60.9365 45.7 60.9965 49.1679C61.1085 55.5069 57.4965 58.5489 54.7535 59.9429C54.9995 58.7629 55.0165 57.3779 54.4575 55.9449C53.9175 54.5599 52.7945 53.4559 51.7085 52.3889C49.7975 50.5109 47.9925 48.7369 48.6955 45.3689C48.8235 44.7509 48.5525 44.1189 48.0165 43.7869C47.4795 43.4549 46.7935 43.4929 46.2975 43.8849C42.4345 46.9289 40.3195 50.3679 40.0135 54.1059C39.8255 56.4119 40.3665 58.4469 41.0545 60.0289C37.8245 58.6479 33.4965 55.4009 33.4985 47.9249V46.2359C33.4985 45.4079 32.8265 44.7359 31.9985 44.7359C31.1705 44.7359 30.4985 45.4079 30.4985 46.2359V47.9249C30.4955 59.4389 39.4325 63.4699 44.1585 63.9929C44.7755 64.0589 45.3705 63.7389 45.6555 63.1839C45.9405 62.6309 45.8505 61.9569 45.4345 61.4949L45.4337 61.4939C45.3727 61.4243 42.6617 58.3302 43.0055 54.3209C43.1775 52.3089 44.0845 50.3699 45.7075 48.5269C46.2751 51.2558 48.1307 53.0811 49.6002 54.5266L49.6035 54.5299L49.608 54.5343C50.5064 55.4177 51.355 56.2522 51.6615 57.0369C52.5365 59.2799 50.8475 61.5739 50.8355 61.5899C50.4585 62.0819 50.4225 62.7549 50.7455 63.2839C51.0205 63.7349 51.5095 64.0019 52.0255 64.0019C52.1145 64.0019 52.2045 63.9939 52.2935 63.9779C52.4135 63.9569 64.2175 61.6679 63.9955 49.1169C63.9175 44.6802 61.2789 41.1564 58.4862 37.4268L58.4855 37.4259L58.4865 37.4239ZM31.9997 39.6013C31.1717 39.6013 30.4997 38.9293 30.4997 38.1013V33.5023H25.8997C25.0717 33.5023 24.3997 32.8303 24.3997 32.0023C24.3997 31.1743 25.0717 30.5023 25.8997 30.5023H30.4997V25.9033C30.4997 25.0753 31.1717 24.4033 31.9997 24.4033C32.8277 24.4033 33.4997 25.0753 33.4997 25.9033V30.5023H38.0997C38.9277 30.5023 39.5997 31.1743 39.5997 32.0023C39.5997 32.8303 38.9277 33.5023 38.0997 33.5023H33.4997V38.1013C33.4997 38.9293 32.8277 39.6013 31.9997 39.6013Z" fill="black"/>
</svg>

<svg xmlns="http://www.w3.org/2000/svg" width="64" height="65" fill="none" viewBox="0 0 64 65"><path fill="currentColor" fill-rule="evenodd" d="m19.472 37.135-2.855 3.394a.3.3 0 0 0-.034.066.3.3 0 0 1-.03.061V25.902a1.5 1.5 0 0 0-1.5-1.5H3.237l15.74-21.388V17.77a1.5 1.5 0 0 0 1.5 1.5h13.557a1.5 1.5 0 0 0 0-3H21.977V3.014c0-1.329-.838-2.484-2.084-2.875a2.94 2.94 0 0 0-3.334 1.146L.534 23.015c-.615.886-.704 1.947-.238 2.838.5.956 1.563 1.55 2.77 1.55h10.489v13.254c0 1.33.838 2.484 2.085 2.875.3.094.604.14.903.14.935 0 1.819-.447 2.409-1.256l2.816-3.348a1.5 1.5 0 0 0-2.297-1.93zm39.015.289c-3.08-4.115-6.571-8.779-7.784-15.843a1.502 1.502 0 0 0-2.365-.956 62 62 0 0 0-5.504 4.51 1.5 1.5 0 0 0 2.038 2.2 55 55 0 0 1 3.375-2.876c1.643 6.488 5.046 11.034 7.84 14.763 2.71 3.62 4.85 6.478 4.91 9.946.112 6.339-3.5 9.38-6.242 10.775.245-1.18.263-2.565-.296-3.998-.54-1.385-1.663-2.49-2.75-3.556-1.91-1.878-3.715-3.652-3.012-7.02a1.502 1.502 0 0 0-2.398-1.484c-3.864 3.044-5.979 6.483-6.285 10.22-.187 2.307.354 4.342 1.041 5.924-3.23-1.381-7.558-4.628-7.556-12.104v-1.69a1.5 1.5 0 0 0-3 0v1.69c-.003 11.514 8.934 15.545 13.66 16.068a1.503 1.503 0 0 0 1.276-2.498v-.001c-.061-.07-2.772-3.164-2.428-7.173.172-2.012 1.078-3.951 2.702-5.794.567 2.729 2.423 4.554 3.892 6l.003.003.005.004c.898.884 1.747 1.718 2.053 2.503.875 2.243-.814 4.537-.825 4.553a1.5 1.5 0 0 0 1.458 2.388c.12-.021 11.924-2.31 11.702-14.861-.079-4.437-2.717-7.96-5.51-11.69zM32 39.6a1.5 1.5 0 0 1-1.5-1.5v-4.599h-4.6a1.5 1.5 0 0 1 0-3h4.6v-4.599a1.5 1.5 0 0 1 3 0v4.6h4.6a1.5 1.5 0 0 1 0 3h-4.6V38.1a1.5 1.5 0 0 1-1.5 1.5" clip-rule="evenodd"/></svg>
